src/components/couchdb/original/CouchdbOriginal.svg

<svg id="CouchDB" xmlns="http://www.w3.org/2000/svg" viewBox="0 0 128 128"><defs><style>.cls-1{fill:#e42528}</style></defs><title>Artboard 12</title><path class="cls-1" d="M101.4 77.2c0 5-2.7 7.5-7.6 7.7H33.9c-4.9 0-7.6-2.5-7.6-7.7 0-5 2.7-7.5 7.6-7.7h60.2c4.9.2 7.3 2.7 7.3 7.7zm-7.3 11.5H33.9c-4.9 0-7.6 2.4-7.6 7.7 0 5 2.7 7.4 7.6 7.7h60.2c4.9 0 7.6-2.5 7.6-7.7-.3-5.3-2.7-7.7-7.6-7.7zm18.6-42.1c-4.9 0-7.6 2.5-7.6 7.4v42.1c0 5 2.7 7.5 7.6 7.7 7.4-.2 11.3-7.7 11.3-22.9V62c0-10.2-3.9-15.2-11.3-15.4zm-97.4 0C7.9 46.8 4 51.8 4 62v18.9c0 15.2 3.9 22.7 11.3 22.9 4.9 0 7.6-2.4 7.6-7.7V54.3c-.2-5-2.7-7.5-7.6-7.7zm97.4-3.8c0-12.7-6.6-18.7-18.6-18.9H33.9c-12.2.2-18.6 6.5-18.6 18.9 7.4 0 11.3 4 11.3 11.5s3.9 11.4 11.3 11.4h52.5c7.3 0 11.3-3.9 11.3-11.4-.3-7.7 3.9-11.2 11-11.5z" id="original"/></svg>

<svg id="CouchDB" xmlns="http://www.w3.org/2000/svg" viewBox="0 0 128 128"><defs><style>.cls-1{fill:#e42528;}</style></defs><title>Artboard 12</title><g id="original"><path class="cls-1" d="M101.4,77.2c0,5-2.7,7.5-7.6,7.7H33.9c-4.9,0-7.6-2.5-7.6-7.7,0-5,2.7-7.5,7.6-7.7H94.1C99,69.7,101.4,72.2,101.4,77.2ZM94.1,88.7H33.9c-4.9,0-7.6,2.4-7.6,7.7,0,5,2.7,7.4,7.6,7.7H94.1c4.9,0,7.6-2.5,7.6-7.7C101.4,91.1,99,88.7,94.1,88.7Zm18.6-42.1h0c-4.9,0-7.6,2.5-7.6,7.4V96.1c0,5,2.7,7.5,7.6,7.7h0c7.4-.2,11.3-7.7,11.3-22.9V62C124,51.8,120.1,46.8,112.7,46.6Zm-97.4,0h0C7.9,46.8,4,51.8,4,62V80.9c0,15.2,3.9,22.7,11.3,22.9h0c4.9,0,7.6-2.4,7.6-7.7V54.3C22.7,49.3,20.2,46.8,15.3,46.6Zm97.4-3.8c0-12.7-6.6-18.7-18.6-18.9H33.9c-12.2.2-18.6,6.5-18.6,18.9h0c7.4,0,11.3,4,11.3,11.5s3.9,11.4,11.3,11.4H90.4c7.3,0,11.3-3.9,11.3-11.4-.3-7.7,3.9-11.2,11-11.5Z"/></g></svg>
